X:1
T:Gallagher's Frolics
R:jig
M:6/8
L:1/8
K:Emin
B,|EFE GFE|BcB dBA|BcB B2A|GBG AFD|
EFE GFE|BcB dBA|BAG FEF|GEE E2:|
B|e2f gfe|g2a bag|dfg afd|faa afd|
efe gfe|dfe dBA|BAG FEF|GEE E2:|
</abc>
